X:15
T:Les filles de Dunkerque
A:FLANDRE
O:FRANCE
M:2/4
L:1/8
Q:1/8=220
K:F
F2FA|c2BA|GcAF|F2FA|c2BBA|GcF2|A2AG|A2B2|
cAF2||
M:9/8
F2FBFFFBFEF|G2GG2cc2B|
M:2/4
A2B2|cAF2|
M:9/8
F2AG2GF3||
